!!!!SEGMENT: pl-wru--50044-muz--001-010_buchner-philipp-friedrich--plectrum-musicum-sonata-x.krn
!!!cenid: 16xx:1811
!!!COM: Buchner, Philipp Friedrich
!!!COM-rismID: pe30013776
!!!CDT: 1614/09/10-1669/03/23
!!!CNT: German
!!!GTL: Plectrum musicum
!!!OTL: Sonata X
!!!OMV: 010
!!!PDT: 1662
!!!AGN: Secular; Sonata
!!!YEC: Copyright 2022 Narodowy Instytut Fryderyka Chopina (https://polishscores.org)
!!!YEM: License CC-BY-4.0 (https://creativecommons.org/licenses/by/4.0)
!!!SMS-siglum: PL-WRu
!!!SMS-shelfmark: 50044 Muz.
!!!SMS-shelfwork: 001-010 G
!!!SMS-variant:
!!!SMS-altvar:
!!!NIFC-rismSourceID: 990007465
!!!NIFC-rismChildID: 990007465
!!!NIFC-islandoraID: none
!!!URL-pdf-islandora:
!!!URL-scan: https://www.bibliotekacyfrowa.pl/dlibra/doccontent?id=116 @EN{Scan on Digital Library of University of Wroclaw} @PL{Skany w portalu Biblioteka Cyfrowa Uniwersytetu Wrocławskiego}
!!!IIIF:
!!!ONB-nifc: UWAGA: Violino I: s. 11, Viola da braccio: s. 36-37, Viola da gamba: s. 47, Bassus: s. 71, Bassus continuus: s. 86
!!!AIN: 1 violn 1 violt
!!!key: a
**kern	**fba	**dynam	**kern	**fba	**dynam	**kern	**dynam	**kern	**dynam	**kern	**dynam
*part5	*	*	*part4	*	*	*part3	*	*part2	*	*part1	*
*staff5	*	*	*staff4	*	*	*staff3	*	*staff2	*	*staff1	*
*I"CONTINUUS.	*	*	*I"BASSVS	*	*	*I"VIOLA	*	*I"VIOLA DA BRACCIO.	*	*I"VIOLINO I.	*
*I'bc	*	*	*I'b	*	*	*I'vla da gamba	*	*I'vla da braccio	*	*I'vl I	*
*	*	*	*	*	*	*ICstr	*	*ICstr	*	*ICstr	*
*	*	*	*	*	*	*Iviolt	*	*	*	*Ivioln	*
*IGcont	*	*	*IGcont	*	*	*	*	*	*	*	*
*clefF4	*	*	*clefF4	*	*	*clefC4	*	*clefC1	*	*clefG2	*
*k[]	*	*	*k[]	*	*	*k[]	*	*k[]	*	*k[]	*
*a:	*	*	*a:	*	*	*a:	*	*a:	*	*a:	*
*M2/2	*	*	*M2/2	*	*	*M2/2	*	*M2/2	*	*M2/2	*
*met(C|)	*	*	*met(C|)	*	*	*met(C|)	*	*met(C|)	*	*met(C|)	*
=1-	=1-	=1-	=1-	=1-	=1-	=1-	=1-	=1-	=1-	=1-	=1-
!LO:TX:a:t=Sonata X.	!	!	!LO:TX:a:t=Sonata X.	!	!	!LO:TX:b:B:t=Adagio.	!	!LO:TX:b:B:t=Adagio	!	!LO:TX:b:B:t=Adagio.	!
!LO:TX:b:B:t=Adagio.	!	!	!LO:TX:b:B:t=Adagio.	!	!	!LO:TX:a:t=Sonata X.	!	!LO:TX:a:t=Sonata X.	!	!LO:TX:a:t=Sonata X.	!
4A\	.	.	4A\	.	.	00r	.	0r	.	16ee\	.
.	.	.	.	.	.	.	.	.	.	16dd\	.
.	.	.	.	.	.	.	.	.	.	16cc\	.
.	.	.	.	.	.	.	.	.	.	16b/	.
4F\	.	.	4F\	.	.	.	.	.	.	8a/	.
.	.	.	.	.	.	.	.	.	.	8ff\	.
4G\	.	.	4G\	.	.	.	.	.	.	16dd\	.
.	.	.	.	.	.	.	.	.	.	16cc\	.
.	.	.	.	.	.	.	.	.	.	16b/	.
.	.	.	.	.	.	.	.	.	.	16a/	.
4E\	.	.	4E\	.	.	.	.	.	.	8g/	.
!	!	!	!	!	!	!	!	!	!	!LO:TX:t=P:problem:kreska pseudotaktowa	!
.	.	.	.	.	.	.	.	.	.	8ee\	.
=2-	=2-	=2-	=2-	=2-	=2-	=2-	=2-	=2-	=2-	=2-	=2-
4F\	.	.	4F\	.	.	.	.	.	.	16cc\	.
.	.	.	.	.	.	.	.	.	.	16b/	.
.	.	.	.	.	.	.	.	.	.	16a/	.
.	.	.	.	.	.	.	.	.	.	16g/	.
4D/	.	.	4D/	.	.	.	.	.	.	8f/	.
.	.	.	.	.	.	.	.	.	.	8dd\	.
8E\	.	.	8E\	.	.	.	.	.	.	8b/	.
8F\	.	.	8F\	.	.	.	.	.	.	16a/	.
.	.	.	.	.	.	.	.	.	.	16b/	.
!LO:TX:t=P:problem:kreska pseudotaktowa	!	!	!LO:TX:t=P:problem:kreska pseudotaktowa	!	!	!	!	!	!	!	!
4E\	6:5 4#r	.	4E\	6:5 4#r	.	.	.	.	.	8cc\	.
.	.	.	.	.	.	.	.	.	.	8b/	.
=3-	=3-	=3-	=3-	=3-	=3-	=3-	=3-	=3-	=3-	=3-	=3-
2AA/	.	.	2AA/	.	.	.	.	2r	.	2a/	.
4G\	.	.	4G\	.	.	.	.	16dd\	.	2r	.
.	.	.	.	.	.	.	.	16cc\	.	.	.
.	.	.	.	.	.	.	.	16b\	.	.	.
.	.	.	.	.	.	.	.	16a\	.	.	.
4E\	.	.	4E\	.	.	.	.	8g/	.	.	.
.	.	.	.	.	.	.	.	8ee\	.	.	.
=4-	=4-	=4-	=4-	=4-	=4-	=4-	=4-	=4-	=4-	=4-	=4-
4F\	.	.	4F\	.	.	.	.	16cc\	.	00r	.
.	.	.	.	.	.	.	.	16b\	.	.	.
.	.	.	.	.	.	.	.	16a\	.	.	.
.	.	.	.	.	.	.	.	16g/	.	.	.
4D/	.	.	4D/	.	.	.	.	8f/	.	.	.
.	.	.	.	.	.	.	.	8dd\	.	.	.
4E\	.	.	4E\	.	.	.	.	16b\	.	.	.
.	.	.	.	.	.	.	.	16a\	.	.	.
.	.	.	.	.	.	.	.	16g/	.	.	.
.	.	.	.	.	.	.	.	16f/	.	.	.
!LO:TX:t=P:problem:kreska pseudotaktowa	!	!	!LO:TX:t=P:problem:kreska pseudotaktowa	!	!	!	!	!	!	!	!
4C/	.	.	4C/	.	.	.	.	8e/	.	.	.
!	!	!	!	!	!	!	!	!LO:TX:t=P:problem:kreska pseudotaktowa	!	!	!
.	.	.	.	.	.	.	.	8cc\	.	.	.
=5-	=5-	=5-	=5-	=5-	=5-	=5-	=5-	=5-	=5-	=5-	=5-
8D/	.	.	8D/	.	.	1r	.	8a\	.	.	.
8E/	.	.	8E/	.	.	.	.	16g/	.	.	.
.	.	.	.	.	.	.	.	16a\	.	.	.
4D/	6:5 4#r	.	4D/	6:5 4#r	.	.	.	8b\	.	.	.
.	.	.	.	.	.	.	.	8a\	.	.	.
2GG/	.	.	2GG/	.	.	.	.	2g/	.	.	.
*clefC4	*	*	*clefC4	*	*	*	*	*	*	*	*
=6-	=6-	=6-	=6-	=6-	=6-	=6-	=6-	=6-	=6-	=6-	=6-
4e\	.	.	4e\	.	.	8e\	.	00r	.	.	.
.	.	.	.	.	.	8e\	.	.	.	.	.
4c\	.	.	4c\	.	.	8c\	.	.	.	.	.
.	.	.	.	.	.	16A/	.	.	.	.	.
.	.	.	.	.	.	16c\	.	.	.	.	.
4d\	#	.	4d\	#	.	8d\	.	.	.	.	.
.	.	.	.	.	.	16D/	.	.	.	.	.
.	.	.	.	.	.	16F#X/	.	.	.	.	.
!	!	!	!	!	!	!LO:TX:t=P:problem:kreska pseudotaktowa	!	!	!	!	!
4G/	.	.	4G/	.	.	4G/	.	.	.	.	.
=7-	=7-	=7-	=7-	=7-	=7-	=7-	=7-	=7-	=7-	=7-	=7-
4d\	.	.	4d\	.	.	8d\	.	.	.	.	.
.	.	.	.	.	.	8d\	.	.	.	.	.
4B\	.	.	4B\	.	.	8B\	.	.	.	.	.
.	.	.	.	.	.	16G/	.	.	.	.	.
.	.	.	.	.	.	16B\	.	.	.	.	.
4c\	.	.	4c\	.	.	8c\	.	.	.	.	.
.	.	.	.	.	.	16C/	.	.	.	.	.
.	.	.	.	.	.	16E/	.	.	.	.	.
!	!	!	!	!	!	!LO:TX:t=P:problem:kreska pseudotaktowa	!	!	!	!	!
4F/	.	.	4F/	.	.	4Fny/	.	.	.	.	.
=8-	=8-	=8-	=8-	=8-	=8-	=8-	=8-	=8-	=8-	=8-	=8-
4A/	.	.	4A/	.	.	8A/	.	.	.	0r	.
.	.	.	.	.	.	8A/	.	.	.	.	.
4F/	.	.	4F/	.	.	8F/	.	.	.	.	.
.	.	.	.	.	.	16D/	.	.	.	.	.
.	.	.	.	.	.	16F/	.	.	.	.	.
4G/	.	.	4G/	.	.	8G/	.	.	.	.	.
*	*	*	*	*	*	*clefF4	*	*	*	*	*
.	.	.	.	.	.	16GG/	.	.	.	.	.
.	.	.	.	.	.	16BB/	.	.	.	.	.
!LO:TX:t=P:problem:kreska pseudotaktowa	!	!	!LO:TX:t=P:problem:kreska pseudotaktowa	!	!	!LO:TX:t=P:problem:kreska pseudotaktowa	!	!	!	!	!
4C/	.	.	4C/	.	.	4C/	.	.	.	.	.
=9-	=9-	=9-	=9-	=9-	=9-	=9-	=9-	=9-	=9-	=9-	=9-
4c\	.	.	4c\	.	.	8c\	.	.	.	.	.
.	.	.	.	.	.	8c\	.	.	.	.	.
8A/	.	.	8A/	.	.	8A\	.	.	.	.	.
8F/	.	.	8F/	.	.	16F\	.	.	.	.	.
.	.	.	.	.	.	16A\	.	.	.	.	.
4G/	.	.	4G/	.	.	8G\	.	.	.	.	.
.	.	.	.	.	.	8G\	.	.	.	.	.
8E/	.	.	8E/	.	.	8E\	.	.	.	.	.
!LO:TX:t=P:problem:custos patrz wy|ej	!	!	!LO:TX:t=P:problem:tak naprawd custos A ale chodzi o D, zmiana znaku po custosu	!	!	!	!	!	!	!	!
8C/	.	.	8C/	.	.	16C/	.	.	.	.	.
.	.	.	.	.	.	16E\	.	.	.	.	.
*clefF4	*	*	*clefF4	*	*	*custos:D	*	*	*	*	*
*custos:D	*	*	*custos:D	*	*	*	*	*	*	*	*
!LO:LB:g=original	!	!	!LO:LB:g=original	!	!	!LO:LB:g=original	!	!	!	!	!
=10-	=10-	=10-	=10-	=10-	=10-	=10-	=10-	=10-	=10-	=10-	=10-
4D/	.	.	4D/	.	.	8D/	.	0r	.	2r	.
.	.	.	.	.	.	8D/	.	.	.	.	.
8BB/	.	.	8BB/	.	.	8BB/	.	.	.	.	.
8GG/	.	.	8GG/	.	.	16GG/	.	.	.	.	.
.	.	.	.	.	.	16BB/	.	.	.	.	.
8C/	.	.	8C/	.	.	8C/	.	.	.	4r	.
8E\	.	.	8E\	.	.	8E\	.	.	.	.	.
!LO:TX:t=P:problem:kreska pseudotaktowa	!	!	!LO:TX:t=P:problem:kreska pseudotaktowa	!	!	!LO:TX:t=P:problem:kreska pseudotaktowa	!	!	!	!	!
4F\	.	.	4F\	.	.	4F\	.	.	.	8r	.
!	!	!	!	!	!	!	!	!	!	!LO:TX:t=P:problem:kreska pseudotaktowa	!
.	.	.	.	.	.	.	.	.	.	8cc\	.
=11-	=11-	=11-	=11-	=11-	=11-	=11-	=11-	=11-	=11-	=11-	=11-
4D/	.	.	4D/	.	.	8r	.	.	.	4dd\	.
.	.	.	.	.	.	8D/	.	.	.	.	.
4E\	.	.	4E\	.	.	4E\	.	.	.	8r	.
.	.	.	.	.	.	.	.	.	.	8b/	.
4C/	.	.	4C/	.	.	8r	.	.	.	4cc\	.
.	.	.	.	.	.	8C/	.	.	.	.	.
8D/	.	.	8D/	.	.	16D/	.	.	.	8r	.
.	.	.	.	.	.	16E\	.	.	.	.	.
!LO:TX:t=P:problem:kreska pseudotaktowa	!	!	!LO:TX:t=P:problem:kreska pseudotaktowa	!	!	!LO:TX:t=P:problem:kreska pseudotaktowa	!	!	!	!	!
8F\	.	.	8F\	.	.	8F\	.	.	.	8a/	.
=12-	=12-	=12-	=12-	=12-	=12-	=12-	=12-	=12-	=12-	=12-	=12-
4E\	.	.	4E\	.	.	8E\	.	8ee\	.	4b/	.
.	.	.	.	.	.	8EE/	.	8ee\	.	.	.
4AA/	.	.	4AA/	.	.	4AA/	.	8cc\	.	4r	.
.	.	.	.	.	.	.	.	16a\	.	.	.
.	.	.	.	.	.	.	.	16cc\	.	.	.
4D/	#	.	4D/	#	.	2r	.	8dd\	.	2r	.
.	.	.	.	.	.	.	.	16f#X/	.	.	.
.	.	.	.	.	.	.	.	16a\	.	.	.
!LO:TX:t=P:problem:kreska pseudotaktowa	!	!	!LO:TX:t=P:problem:kreska pseudotaktowa	!	!	!	!	!	!	!	!
4GG/	.	.	4GG/	.	.	.	.	4b\	.	.	.
*	*	*	*	*	*	*	*	*custos:dd	*	*	*
!	!	!	!	!	!	!	!	!LO:LB:g=original	!	!	!
=13-	=13-	=13-	=13-	=13-	=13-	=13-	=13-	=13-	=13-	=13-	=13-
4G\	.	.	4G\	.	.	00r	.	1r	.	8gg\	.
.	.	.	.	.	.	.	.	.	.	8gg\	.
4C/	.	.	4C/	.	.	.	.	.	.	8ee\	.
.	.	.	.	.	.	.	.	.	.	16cc\	.
.	.	.	.	.	.	.	.	.	.	16ee\	.
*	*	*	*	*	*	*	*	*	*	*custos:ff	*
!	!	!	!	!	!	!	!	!	!	!LO:LB:g=original	!
4F\	.	.	4F\	.	.	.	.	.	.	8ff\	.
.	.	.	.	.	.	.	.	.	.	16a/	.
.	.	.	.	.	.	.	.	.	.	16cc\	.
!LO:TX:t=P:problem:kreska pseudotaktowa	!	!	!LO:TX:t=P:problem:kreska pseudotaktowa	!	!	!	!	!	!	!LO:TX:t=P:problem:kreska pseudotaktowa	!
4D/	.	.	4D/	.	.	.	.	.	.	4dd\	.
=14-	=14-	=14-	=14-	=14-	=14-	=14-	=14-	=14-	=14-	=14-	=14-
4GG/	.	.	4GG/	.	.	.	.	8dd\	.	2r	.
.	.	.	.	.	.	.	.	8dd\	.	.	.
4G\	.	.	4G\	.	.	.	.	8b\	.	.	.
.	.	.	.	.	.	.	.	16g/	.	.	.
.	.	.	.	.	.	.	.	16b\	.	.	.
4C/	.	.	4C/	.	.	.	.	8cc\	.	8ee\	.
.	.	.	.	.	.	.	.	16e/	.	8ee\	.
.	.	.	.	.	.	.	.	16g/	.	.	.
!LO:TX:t=P:problem:kreska pseudotaktowa	!	!	!LO:TX:t=P:problem:kreska pseudotaktowa	!	!	!	!	!LO:TX:t=P:problem:kreska pseudotaktowa	!	!	!
4AA/	.	.	4AA/	.	.	.	.	4a\	.	8cc\	.
.	.	.	.	.	.	.	.	.	.	16a/	.
!	!	!	!	!	!	!	!	!	!	!LO:TX:t=P:problem:kreska pseudotaktowa	!
.	.	.	.	.	.	.	.	.	.	16cc\	.
=15-	=15-	=15-	=15-	=15-	=15-	=15-	=15-	=15-	=15-	=15-	=15-
4D/	#	.	4D/	#	.	.	.	4r	.	8dd\	.
.	.	.	.	.	.	.	.	.	.	16d/	.
.	.	.	.	.	.	.	.	.	.	16f#X/	.
4GG/	.	.	4GG/	.	.	.	.	8b\	.	4g/	.
.	.	.	.	.	.	.	.	8b\	.	.	.
4C/	.	.	4C/	.	.	.	.	8g/	.	2r	.
.	.	.	.	.	.	.	.	16e/	.	.	.
.	.	.	.	.	.	.	.	16g/	.	.	.
!LO:TX:t=P:problem:kreska pseudotaktowa	!	!	!LO:TX:t=P:problem:kreska pseudotaktowa	!	!	!	!	!	!	!	!
4AA/	.	.	4AA/	.	.	.	.	8a\	.	.	.
.	.	.	.	.	.	.	.	16c/	.	.	.
!	!	!	!	!	!	!	!	!LO:TX:t=P:problem:kreska pseudotaktowa	!	!	!
.	.	.	.	.	.	.	.	16e/	.	.	.
=16-	=16-	=16-	=16-	=16-	=16-	=16-	=16-	=16-	=16-	=16-	=16-
4D/	.	.	4D/	.	.	.	.	4fny/	.	8dd\	.
.	.	.	.	.	.	.	.	.	.	8dd\	.
4G\	.	.	4G\	.	.	.	.	8g/	.	8b/	.
.	.	.	.	.	.	.	.	8g/	.	16g/	.
.	.	.	.	.	.	.	.	.	.	16b/	.
4C/	.	.	4C/	.	.	.	.	8e/	.	8cc\	.
.	.	.	.	.	.	.	.	16c/	.	16e/	.
.	.	.	.	.	.	.	.	16e/	.	16g/	.
!LO:TX:t=P:problem:kreska pseudotaktowa	!	!	!LO:TX:t=P:problem:kreska pseudotaktowa	!	!	!	!	!	!	!	!
4AA/	6	.	4AA/	6	.	.	.	8f/	.	8a/	.
!	!	!	!	!	!	!	!	!	!	!LO:TX:t=P:problem:kreska pseudotaktowa	!
.	.	.	.	.	.	.	.	8a\	.	8cc\	.
*	*	*	*	*	*	*clefC4	*	*	*	*	*
=17-	=17-	=17-	=17-	=17-	=17-	=17-	=17-	=17-	=17-	=17-	=17-
8GG/	.	.	8GG/	.	.	2r	.	8b\	.	8dd\	.
8EE/	.	.	8EE/	.	.	.	.	8cc\	.	8ee\	.
4GG/	.	.	4GG/	.	.	.	.	8cc\	.	4dd\	.
.	.	.	.	.	.	.	.	8b\	.	.	.
4C/	.	.	4C/	.	.	16e\	.	4cc\	.	4cc\	.
.	.	.	.	.	.	16d\	.	.	.	.	.
.	.	.	.	.	.	16c\	.	.	.	.	.
.	.	.	.	.	.	16B\	.	.	.	.	.
4F\	.	.	4F\	.	.	8A/	.	8r	.	4r	.
!	!	!	!	!	!	!	!	!LO:TX:t=P:problem:kreska pseudotaktowa	!	!	!
.	.	.	.	.	.	8f\	.	8a\	.	.	.
=18-	=18-	=18-	=18-	=18-	=18-	=18-	=18-	=18-	=18-	=18-	=18-
4G\	.	.	4G\	.	.	16d\	.	4b\	.	8r	.
.	.	.	.	.	.	16c\	.	.	.	.	.
.	.	.	.	.	.	16B\	.	.	.	8dd\	.
.	.	.	.	.	.	16A/	.	.	.	.	.
4E\	.	.	4E\	.	.	8G/	.	8r	.	4ee\	.
.	.	.	.	.	.	8e\	.	8g/	.	.	.
4F\	.	.	4F\	.	.	16c\	.	4a\	.	8r	.
.	.	.	.	.	.	16B\	.	.	.	.	.
.	.	.	.	.	.	16A/	.	.	.	8cc\	.
.	.	.	.	.	.	16G/	.	.	.	.	.
!	!	!	!	!	!	!	!	!	!	!LO:TX:t=P:problem:kreska pseudotaktowa	!
4D/	.	.	4D/	.	.	8F/	.	4r	.	4dd\	.
!	!	!	!	!	!	!LO:TX:t=P:problem:kreska pseudotaktowa	!	!	!	!	!
.	.	.	.	.	.	8d\	.	.	.	.	.
*custos:E	*	*	*custos:E	*	*	*custos:B	*	*custos:g	*	*	*
!LO:LB:g=original	!	!	!LO:LB:g=original	!	!	!LO:LB:g=original	!	!LO:LB:g=original	!	!	!
=19-	=19-	=19-	=19-	=19-	=19-	=19-	=19-	=19-	=19-	=19-	=19-
8E\	#	.	8E\	#	.	8B\	.	4r	.	4r	.
8F\	.	.	8F\	.	.	16A/	.	.	.	.	.
.	.	.	.	.	.	16B\	.	.	.	.	.
4E\	6:5 4#r	.	4E\	6:5 4#r	.	8c\	.	8r	.	8r	.
.	.	.	.	.	.	8B\	.	8g#X/	.	8b/	.
4AA/	.	.	4AA/	.	.	4A/	.	4a\	.	8cc\	.
.	.	.	.	.	.	.	.	.	.	8ee\	.
!	!	!	!	!	!	!	!	!	!	!LO:TX:t=P:problem:kreska pseudotaktowa	!
8FF/	.	.	8FF/	.	.	8r	.	8r	.	4ff\	.
!LO:TX:t=P:problem:kreska pseudotaktowa	!	!	!LO:TX:t=P:problem:kreska pseudotaktowa	!	!	!LO:TX:t=P:problem:kreska pseudotaktowa	!	!LO:TX:t=P:problem:kreska pseudotaktowa	!	!	!
8F\	.	.	8F\	.	.	8F/	.	8a\	.	.	.
=20-	=20-	=20-	=20-	=20-	=20-	=20-	=20-	=20-	=20-	=20-	=20-
4G\	.	.	4G\	.	.	4G/	.	4b\	.	8r	.
.	.	.	.	.	.	.	.	.	.	8dd\	.
4E\	.	.	4E\	.	.	8r	.	8r	.	4ee\	.
.	.	.	.	.	.	8E/	.	8g#/	.	.	.
*	*	*	*	*	*	*	*	*	*	*custos:cc	*
!	!	!	!	!	!	!	!	!	!	!LO:LB:g=original	!
4F\	.	.	4F\	.	.	4F/	.	4a\	.	8r	.
.	.	.	.	.	.	.	.	.	.	8cc\	.
!LO:TX:t=P:problem:kreska pseudotaktowa	!	!	!LO:TX:t=P:problem:kreska pseudotaktowa	!	!	!	!	!LO:TX:t=P:problem:kreska pseudotaktowa	!	!LO:TX:t=P:problem:kreska pseudotaktowa	!
4D/	.	.	4D/	.	.	8r	.	4r	.	4dd\	.
!	!	!	!	!	!	!LO:TX:t=P:problem:kreska pseudotaktowa	!	!	!	!	!
.	.	.	.	.	.	8D/	.	.	.	.	.
=21-	=21-	=21-	=21-	=21-	=21-	=21-	=21-	=21-	=21-	=21-	=21-
4E\	.	.	4E\	.	.	4E/	.	4r	.	16gg\	.
.	.	.	.	.	.	.	.	.	.	16ff\	.
.	.	.	.	.	.	.	.	.	.	16ee\	.
.	.	.	.	.	.	.	.	.	.	16dd\	.
4F\	.	.	4F\	.	.	8f\	.	8r	.	8cc\	.
.	.	.	.	.	.	8f\	.	8a\	.	8aa\	.
4D/	.	.	4D/	.	.	8d\	.	4b\	.	16ff\	.
.	.	.	.	.	.	.	.	.	.	16ee\	.
.	.	.	.	.	.	16B\	.	.	.	16dd\	.
.	.	.	.	.	.	32c\	.	.	.	16cc\	.
.	.	.	.	.	.	32d\	.	.	.	.	.
4E\	.	.	4E\	.	.	8e\	.	8r	.	8b/	.
!	!	!	!	!	!	!LO:TX:t=P:problem:kreska pseudotaktowa	!	!LO:TX:t=P:problem:kreska pseudotaktowa	!	!LO:TX:t=P:problem:kreska pseudotaktowa	!
.	.	.	.	.	.	8e\	.	8gny/	.	8gg\	.
=22-	=22-	=22-	=22-	=22-	=22-	=22-	=22-	=22-	=22-	=22-	=22-
4C/	.	.	4C/	.	.	16c\	.	4a\	.	16ee\	.
.	.	.	.	.	.	16A/	.	.	.	16dd\	.
.	.	.	.	.	.	32B\	.	.	.	16cc\	.
.	.	.	.	.	.	32c\	.	.	.	.	.
.	.	.	.	.	.	8d\	.	.	.	16b/	.
4D/	.	.	4D/	.	.	.	.	4r	.	8a/	.
.	.	.	.	.	.	8d\	.	.	.	.	.
.	.	.	.	.	.	.	.	.	.	8ff\	.
.	.	.	.	.	.	8B\	.	.	.	.	.
4BB/	.	.	4BB/	.	.	.	.	16dd\	.	4dd\	.
.	.	.	.	.	.	8G/	.	16cc\	.	.	.
.	.	.	.	.	.	.	.	16b\	.	.	.
.	.	.	.	.	.	32A/	.	16a\	.	.	.
.	.	.	.	.	.	32B\	.	.	.	.	.
4C/	.	.	4C/	.	.	8c\	.	8g/	.	4r	.
!	!	!	!	!	!	!	!	!LO:TX:t=P:problem:kreska pseudotaktowa	!	!	!
.	.	.	.	.	.	8c\	.	8ee\	.	.	.
=23-	=23-	=23-	=23-	=23-	=23-	=23-	=23-	=23-	=23-	=23-	=23-
4AA/	.	.	4AA/	.	.	4r	.	16cc\	.	8r	.
.	.	.	.	.	.	.	.	16b\	.	.	.
.	.	.	.	.	.	.	.	16a\	.	8ee\	.
.	.	.	.	.	.	.	.	16g/	.	.	.
4D/	.	.	4D/	.	.	8r	.	8f/	.	4ff\	.
.	.	.	.	.	.	8A/	.	8dd\	.	.	.
4G\	.	.	4G\	.	.	4B\	.	16b\	.	8r	.
.	.	.	.	.	.	.	.	16a\	.	.	.
.	.	.	.	.	.	.	.	16g/	.	8dd\	.
!	!	!	!	!	!	!	!	!LO:TX:t=P:problem:LO:N:vis=32	!	!	!
.	.	.	.	.	.	.	.	16f/	.	.	.
!LO:TX:t=P:problem:kreska pseudotaktowa	!	!	!LO:TX:t=P:problem:kreska pseudotaktowa	!	!	!	!	!	!	!LO:TX:t=P:problem:kreska pseudotaktowa	!
4C/	.	.	4C/	.	.	8r	.	8e/	.	4ee\	.
!	!	!	!	!	!	!LO:TX:t=P:problem:kreska pseudotaktowa	!	!LO:TX:t=P:problem:kreska pseudotaktowa	!	!	!
.	.	.	.	.	.	8G/	.	8cc\	.	.	.
=24-	=24-	=24-	=24-	=24-	=24-	=24-	=24-	=24-	=24-	=24-	=24-
4F\	.	.	4F\	.	.	4A/	.	4a\	.	8r	.
.	.	.	.	.	.	.	.	.	.	8cc\	.
4D/	.	.	4D/	.	.	4r	.	8r	.	4dd\	.
.	.	.	.	.	.	.	.	8f/	.	.	.
*	*	*	*	*	*	*custos:G	*	*	*	*	*
!	!	!	!	!	!	!LO:LB:g=original	!	!	!	!	!
*	*	*	*	*	*	*clefF4	*	*	*	*	*
8G\	.	.	8G\	.	.	16G\	.	4g/	.	4r	.
.	.	.	.	.	.	16F\	.	.	.	.	.
8E\	.	.	8E\	.	.	16E\	.	.	.	.	.
.	.	.	.	.	.	16D/	.	.	.	.	.
4C/	6	.	4C/	6	.	8C/	.	8r	.	16ee\	.
.	.	.	.	.	.	.	.	.	.	16dd\	.
!	!	!	!	!	!	!LO:TX:t=P:problem:kreska pseudotaktowa	!	!	!	!	!
.	.	.	.	.	.	8A\	.	8e/	.	16cc\	.
!	!	!	!	!	!	!	!	!	!	!LO:TX:t=P:problem:kreska pseudotaktowa	!
.	.	.	.	.	.	.	.	.	.	16b/	.
*	*	*	*	*	*	*	*	*custos:f	*	*	*
!	!	!	!	!	!	!	!	!LO:LB:g=original	!	!	!
=25-	=25-	=25-	=25-	=25-	=25-	=25-	=25-	=25-	=25-	=25-	=25-
4D/	-	.	4D/	-	.	16F\	.	4f/	.	8a/	.
.	.	.	.	.	.	16E\	.	.	.	.	.
.	.	.	.	.	.	16D/	.	.	.	8ff\	.
.	.	.	.	.	.	16C/	.	.	.	.	.
4BB/	.	.	4BB/	.	.	8BB/	.	4r	.	16dd\	.
.	.	.	.	.	.	.	.	.	.	16cc\	.
.	.	.	.	.	.	8G\	.	.	.	16b/	.
.	.	.	.	.	.	.	.	.	.	16a/	.
*	*	*	*	*	*	*	*	*	*	*custos:g	*
!	!	!	!	!	!	!	!	!	!	!LO:LB:g=original	!
4C/	.	.	4C/	.	.	16E\	.	4r	.	8g/	.
.	.	.	.	.	.	16D/	.	.	.	.	.
.	.	.	.	.	.	16C/	.	.	.	8ee\	.
.	.	.	.	.	.	16BB/	.	.	.	.	.
!LO:TX:t=P:problem:kreska pseudotaktowa	!	!	!LO:TX:t=P:problem:kreska pseudotaktowa	!	!	!LO:TX:t=P:problem:kreska pseudotaktowa	!	!	!	!LO:TX:t=P:problem:kreska pseudotaktowa	!
4AA/	.	.	4AA/	.	.	4AA/	.	8ee\	.	4cc\	.
!	!	!	!	!	!	!	!	!LO:TX:t=P:problem:kreska pseudotaktowa	!	!	!
.	.	.	.	.	.	.	.	8ee\	.	.	.
=26-	=26-	=26-	=26-	=26-	=26-	=26-	=26-	=26-	=26-	=26-	=26-
4A\	.	.	4A\	.	.	8A\	.	8cc\	.	4r	.
.	.	.	.	.	.	8A\	.	16a\	.	.	.
.	.	.	.	.	.	.	.	32b\	.	.	.
.	.	.	.	.	.	.	.	32cc\	.	.	.
4F\	.	.	4F\	.	.	8F\	.	8dd\	.	8ff\	.
.	.	.	.	.	.	16D/	.	8dd\	.	8ff\	.
.	.	.	.	.	.	32E\	.	.	.	.	.
.	.	.	.	.	.	32F\	.	.	.	.	.
4G\	.	.	4G\	.	.	8G\	.	16b\	.	8dd\	.
.	.	.	.	.	.	.	.	16a\	.	.	.
.	.	.	.	.	.	16GG/	.	16g/	.	16b/	.
.	.	.	.	.	.	32AA/	.	16f/	.	32cc\	.
.	.	.	.	.	.	32BB/	.	.	.	32dd\	.
!	!	!	!	!	!	!LO:TX:t=P:problem:kreska pseudotaktowa	!	!	!	!LO:TX:t=P:problem:kreska pseudotaktowa	!
4C/	.	.	4C/	.	.	4C/	.	8e/	.	4ee\	.
!	!	!	!	!	!	!	!	!LO:TX:t=P:problem:kreska pseudotaktowa	!	!	!
.	.	.	.	.	.	.	.	8ee\	.	.	.
=27-	=27-	=27-	=27-	=27-	=27-	=27-	=27-	=27-	=27-	=27-	=27-
4C/	.	.	4C/	.	.	8r	.	16cc\	.	16ee\	.
.	.	.	.	.	.	.	.	16b\	.	16dd\	.
.	.	.	.	.	.	8C/	.	16a\	.	16cc\	.
.	.	.	.	.	.	.	.	16g/	.	16b/	.
4D/	-	.	4D/	-	.	4D/	.	8f/	.	8a/	.
.	.	.	.	.	.	.	.	8dd\	.	8ff\	.
4G\	.	.	4G\	.	.	8r	.	16b\	.	16dd\	.
.	.	.	.	.	.	.	.	16a\	.	16cc\	.
.	.	.	.	.	.	8B\	.	16g/	.	16b/	.
.	.	.	.	.	.	.	.	16f/	.	16a/	.
4C/	.	.	4C/	.	.	8c\	.	8e/	.	8g/	.
!	!	!	!	!	!	!LO:TX:t=P:problem:kreska pseudotaktowa	!	!LO:TX:t=P:problem:kreska pseudotaktowa	!	!LO:TX:t=P:problem:kreska pseudotaktowa	!
.	.	.	.	.	.	8E\	.	8cc\	.	8ee\	.
*custos:F	*	*	*custos:F	*	*	*	*	*	*	*	*
!LO:LB:g=original	!	!	!LO:LB:g=original	!	!	!	!	!	!	!	!
=28-	=28-	=28-	=28-	=28-	=28-	=28-	=28-	=28-	=28-	=28-	=28-
4F\	.	.	4F\	.	.	8F\	.	4a\	.	8cc\	.
.	.	.	.	.	.	16A\	.	.	.	8cc\	.
.	.	.	.	.	.	16A\	.	.	.	.	.
4D/	.	.	4D/	.	.	8F\	.	8r	.	4dd\	.
.	.	.	.	.	.	16D/	.	8f/	.	.	.
.	.	.	.	.	.	32E\	.	.	.	.	.
.	.	.	.	.	.	32F\	.	.	.	.	.
*	*	*	*	*	*	*custos:G	*	*	*	*	*
!	!	!	!	!	!	!LO:LB:g=original	!	!	!	!	!
4E\	.	.	4E\	.	.	8G\	.	4g/	.	8r	.
.	.	.	.	.	.	8G\	.	.	.	8b/	.
!	!	!	!	!	!	!	!	!	!	!LO:TX:t=P:problem:kreska pseudotaktowa	!
4C/	.	.	4C/	.	.	8E\	.	8r	.	4cc\	.
.	.	.	.	.	.	16C/	.	8e/	.	.	.
.	.	.	.	.	.	32D/	.	.	.	.	.
!	!	!	!	!	!	!LO:TX:t=P:problem:kreska pseudotaktowa	!	!	!	!	!
.	.	.	.	.	.	32E\	.	.	.	.	.
*	*	*	*	*	*	*	*	*custos:f#	*	*	*
!	!	!	!	!	!	!	!	!LO:LB:g=original	!	!	!
=29-	=29-	=29-	=29-	=29-	=29-	=29-	=29-	=29-	=29-	=29-	=29-
8D/	#	.	8D/	#	.	8D/	.	8f#X/	.	8a/	.
8E\	.	.	8E\	.	.	8E\	.	8g/	.	16g/	.
.	.	.	.	.	.	.	.	.	.	16a/	.
4D/	#	.	4D/	#	.	4D/	.	8g/	.	8b/	.
.	.	.	.	.	.	.	.	8f#X/	.	8a/	.
4GG/	.	.	4GG/	.	.	4GG/	.	4g/	.	4g/	.
!LO:TX:t=P:problem:kreska pseudotaktowa	!	!	!LO:TX:t=P:problem:kreska pseudotaktowa	!	!	!	!	!LO:TX:t=P:problem:kreska pseudotaktowa	!	!LO:TX:t=P:problem:kreska pseudotaktowa	!
4G\	.	.	4G\	.	.	8G\	.	4r	.	4r	.
!	!	!	!	!	!	!LO:TX:t=P:problem:kreska pseudotaktowa	!	!	!	!	!
.	.	.	.	.	.	8G\	.	.	.	.	.
=30-	=30-	=30-	=30-	=30-	=30-	=30-	=30-	=30-	=30-	=30-	=30-
4E\	.	.	4E\	.	.	8E\	.	8ee\	.	8r	.
.	.	.	.	.	.	16C/	.	8ee\	.	8gg\	.
.	.	.	.	.	.	32D/	.	.	.	.	.
.	.	.	.	.	.	32E\	.	.	.	.	.
4F\	.	.	4F\	.	.	4F\	.	8cc\	.	4aa\	.
.	.	.	.	.	.	.	.	16a\	.	.	.
.	.	.	.	.	.	.	.	32b\	.	.	.
.	.	.	.	.	.	.	.	32cc\	.	.	.
*	*	*	*	*	*	*clefC4	*	*	*	*	*
4D/	-	.	4D/	-	.	16d\	.	8dd\	.	8r	.
.	.	.	.	.	.	16c\	.	.	.	.	.
.	.	.	.	.	.	16B\	.	8dd\	.	8ff\	.
.	.	.	.	.	.	16A/	.	.	.	.	.
4E\	.	.	4E\	.	.	8G/	.	8b\	.	4gg\	.
.	.	.	.	.	.	8e\	.	16g/	.	.	.
.	.	.	.	.	.	.	.	32a\	.	.	.
!	!	!	!	!	!	!	!	!LO:TX:t=P:problem:kreska pseudotaktowa	!	!	!
.	.	.	.	.	.	.	.	32b\	.	.	.
*	*	*	*	*	*	*	*	*	*	*custos:ee	*
!	!	!	!	!	!	!	!	!	!	!LO:LB:g=original	!
=31-	=31-	=31-	=31-	=31-	=31-	=31-	=31-	=31-	=31-	=31-	=31-
4C/	.	.	4C/	.	.	16c\	.	8cc\	.	8r	.
.	.	.	.	.	.	16B\	.	.	.	.	.
.	.	.	.	.	.	16A/	.	8cc\	.	8ee\	.
.	.	.	.	.	.	16G/	.	.	.	.	.
4D/	.	.	4D/	.	.	8F/	.	8a\	.	4ff\	.
.	.	.	.	.	.	8d\	.	16fny/	.	.	.
.	.	.	.	.	.	.	.	32g/	.	.	.
.	.	.	.	.	.	.	.	32a\	.	.	.
4G\	.	.	4G\	.	.	16B\	.	4b\	.	8r	.
.	.	.	.	.	.	16A/	.	.	.	.	.
.	.	.	.	.	.	16G/	.	.	.	8dd\	.
.	.	.	.	.	.	16F/	.	.	.	.	.
!LO:TX:t=P:problem:kreska pseudotaktowa	!	!	!LO:TX:t=P:problem:kreska pseudotaktowa	!	!	!	!	!LO:TX:t=P:problem:kreska pseudotaktowa	!	!LO:TX:t=P:problem:kreska pseudotaktowa	!
4E\	.	.	4E\	.	.	8E/	.	4r	.	4ee\	.
!	!	!	!	!	!	!LO:TX:t=P:problem:kreska pseudotaktowa	!	!	!	!	!
.	.	.	.	.	.	8c\	.	.	.	.	.
*	*	*	*	*	*	*custos:A	*	*	*	*	*
!	!	!	!	!	!	!LO:LB:g=original	!	!	!	!	!
=32-	=32-	=32-	=32-	=32-	=32-	=32-	=32-	=32-	=32-	=32-	=32-
4F\	.	.	4F\	.	.	4A/	.	16cc\	.	2r	.
.	.	.	.	.	.	.	.	16b\	.	.	.
.	.	.	.	.	.	.	.	16a\	.	.	.
.	.	.	.	.	.	.	.	16g/	.	.	.
4D/	.	.	4D/	.	.	16d\	.	8f/	.	.	.
.	.	.	.	.	.	16c\	.	.	.	.	.
.	.	.	.	.	.	16B\	.	8dd\	.	.	.
.	.	.	.	.	.	16A/	.	.	.	.	.
4G\	.	.	4G\	.	.	8G/	.	4b\	.	4r	.
*	*	*	*	*	*	*clefF4	*	*	*	*	*
.	.	.	.	.	.	8GG/	.	.	.	.	.
4C/	.	.	4C/	.	.	8C/	.	16cc\	.	16ee\	.
.	.	.	.	.	.	.	.	16b\	.	16dd\	.
!	!	!	!	!	!	!LO:TX:t=P:problem:kreska pseudotaktowa	!	!	!	!	!
.	.	.	.	.	.	8C/	.	16a\	.	16cc\	.
.	.	.	.	.	.	.	.	16g/	.	16b/	.
*	*	*	*	*	*	*	*	*custos:f	*	*	*
!	!	!	!	!	!	!	!	!LO:LB:g=original	!	!	!
=33-	=33-	=33-	=33-	=33-	=33-	=33-	=33-	=33-	=33-	=33-	=33-
!	!	!	!	!	!	!LO:TX:t=P:problem:kreska pseudotaktowa	!	!	!	!	!
4D/	.	.	4D/	.	.	4D/	.	8f/	.	8a/	.
.	.	.	.	.	.	.	.	8dd\	.	8ff\	.
4E\	5	.	4E\	5	.	4r	.	4g/	.	8b/	.
.	.	.	.	.	.	.	.	.	.	8gg\	.
4F\	.	.	4F\	.	.	16A\	.	8r	.	4ccc\	.
.	.	.	.	.	.	16G\	.	.	.	.	.
.	.	.	.	.	.	16F\	.	8cc\	.	.	.
.	.	.	.	.	.	16E\	.	.	.	.	.
!	!	!	!	!	!	!	!	!LO:TX:t=P:problem:kreska pseudotaktowa	!	!LO:TX:t=P:problem:kreska pseudotaktowa	!
8D/	.	.	8D/	.	.	8D/	.	4dd\	.	4r	.
!	!	!	!	!	!	!LO:TX:t=P:problem:kreska pseudotaktowa	!	!	!	!	!
8G\	.	.	8G\	.	.	8G\	.	.	.	.	.
=34-	=34-	=34-	=34-	=34-	=34-	=34-	=34-	=34-	=34-	=34-	=34-
4C/	.	.	4C/	.	.	4C/	.	16ee\	.	4r	.
.	.	.	.	.	.	.	.	16dd\	.	.	.
.	.	.	.	.	.	.	.	16cc\	.	.	.
.	.	.	.	.	.	.	.	16b\	.	.	.
4D/	#	.	4D/	#	.	8r	.	8a\	.	16ff\	.
.	.	.	.	.	.	.	.	.	.	16ee\	.
.	.	.	.	.	.	8D/	.	8dd\	.	16dd\	.
.	.	.	.	.	.	.	.	.	.	16cc\	.
2E\	4#r	.	2E\	4#r	.	4E\	.	8g#X/	.	8.b/	.
.	.	.	.	.	.	.	.	8a\	.	.	.
.	.	.	.	.	.	.	.	.	.	32cc\	.
.	.	.	.	.	.	.	.	.	.	32dd\	.
.	.	.	.	.	.	4EE/	.	8a\	.	8ee\	.
.	.	.	.	.	.	.	.	8g#X/	.	8b/	.
=35-	=35-	=35-	=35-	=35-	=35-	=35-	=35-	=35-	=35-	=35-	=35-
!LO:TX:t=P:problem:kreska pseudotaktowa	!	!	!LO:TX:t=P:problem:kreska pseudotaktowa	!	!	!	!	!LO:TX:t=P:problem:kreska pseudotaktowa	!	!LO:TX:t=P:problem:kreska pseudotaktowa	!
1AA	.	.	1AA	.	.	1AA	.	1a	.	1a	.
=36-	=36-	=36-	=36-	=36-	=36-	=36-	=36-	=36-	=36-	=36-	=36-
!LO:TX:b:B:t=Adagio.	!	!	!LO:TX:b:B:t=Adagio.	!	!	!LO:TX:b:B:t=adagio.	!	!LO:TX:b:B:t=adagio.	!	!	!
2.A\	.	.	2.A\	.	.	2.A\	.	2.cc\	.	2r	.
.	.	.	.	.	.	.	.	.	.	2.ee\	.
4G\	6	.	4G\	6	.	4G\	.	4b\	.	.	.
=37-	=37-	=37-	=37-	=37-	=37-	=37-	=37-	=37-	=37-	=37-	=37-
2F\	7:6	.	2F\	7:6	.	2F\	.	2a\	.	.	.
.	.	.	.	.	.	.	.	.	.	4dd\	.
2E\	6	.	2E\	6	.	2E\	.	2gny/	.	2.cc\	.
=38-	=38-	=38-	=38-	=38-	=38-	=38-	=38-	=38-	=38-	=38-	=38-
2D/	7:6	.	2D/	7:6	.	2D/	.	2f/	.	.	.
.	.	.	.	.	.	.	.	.	.	4b/	.
2C/	.	.	2C/	.	.	2C/	.	4.e/	.	8cc\	.
.	.	.	.	.	.	.	.	.	.	8dd\	.
.	.	.	.	.	.	.	.	.	.	2ee\	.
.	.	.	.	.	.	.	.	8e/	.	.	.
=39-	=39-	=39-	=39-	=39-	=39-	=39-	=39-	=39-	=39-	=39-	=39-
1F	7:6	.	1F	7:6	.	1F	.	2.a\	.	.	.
.	.	.	.	.	.	.	.	.	.	4ee\	.
.	.	.	.	.	.	.	.	.	.	2.dd\	.
.	.	.	.	.	.	.	.	4a\	.	.	.
=40-	=40-	=40-	=40-	=40-	=40-	=40-	=40-	=40-	=40-	=40-	=40-
0E	7:6:5 #:4#r	.	0E	7:6:5 #:4#r	.	0E	.	4g#X/	.	.	.
.	.	.	.	.	.	.	.	2a\	.	4cc\	.
.	.	.	.	.	.	.	.	.	.	2.b/	.
.	.	.	.	.	.	.	.	8g#X/	.	.	.
.	.	.	.	.	.	.	.	8f/	.	.	.
=41-	=41-	=41-	=41-	=41-	=41-	=41-	=41-	=41-	=41-	=41-	=41-
.	.	.	.	.	.	.	.	1g#X	.	.	.
.	.	.	.	.	.	.	.	.	.	4a/	.
.	.	.	.	.	.	.	.	.	.	2b/	.
*custos:E	*	*	*custos:E	*	*	*	*	*custos:g#	*	*custos:b	*
!LO:LB:g=original	!	!	!LO:LB:g=original	!	!	!	!	!LO:LB:g=original	!	!LO:LB:g=original	!
=!|:	=!|:	=!|:	=!|:	=!|:	=!|:	=!|:	=!|:	=!|:	=!|:	=!|:	=!|:
*M3/2	*	*	*M3/2	*	*	*M3/2	*	*M3/2	*	*M3/2	*
1.E	#	.	1.E	#	.	4E\	.	4g#X/	.	4b/	.
.	.	.	.	.	.	4E\	.	4g#/	.	4b/	.
.	.	.	.	.	.	4E\	.	4g#/	.	4b/	.
.	.	.	.	.	.	4E\	.	4g#/	.	4b/	.
.	.	.	.	.	.	2E\	.	2g#/	.	2b/	.
*	*	*	*	*	*	*custos:A	*	*	*	*	*
!	!	!	!	!	!	!LO:LB:g=original	!	!	!	!	!
=42-	=42-	=42-	=42-	=42-	=42-	=42-	=42-	=42-	=42-	=42-	=42-
1.A	-	.	1.A	-	.	4A\	.	4a\	.	4cc\	.
.	.	.	.	.	.	4A\	.	4a\	.	4cc\	.
.	.	.	.	.	.	4A\	.	4a\	.	4cc\	.
.	.	.	.	.	.	4A\	.	4a\	.	4cc\	.
.	.	.	.	.	.	2A\	.	2a\	.	2cc\	.
=43-	=43-	=43-	=43-	=43-	=43-	=43-	=43-	=43-	=43-	=43-	=43-
1.G	.	.	1.G	.	.	4G\	.	4b\	.	4dd\	.
.	.	.	.	.	.	4G\	.	4b\	.	4dd\	.
.	.	.	.	.	.	4G\	.	4b\	.	4dd\	.
.	.	.	.	.	.	4G\	.	4b\	.	4dd\	.
.	.	.	.	.	.	2G\	.	2b\	.	2dd\	.
=44-	=44-	=44-	=44-	=44-	=44-	=44-	=44-	=44-	=44-	=44-	=44-
1C	.	.	1C	.	.	4C/	.	1cc	.	1ee	.
*	*	*	*	*	*	*clefC4	*	*	*	*	*
.	.	.	.	.	.	4G/	.	.	.	.	.
.	.	.	.	.	.	8c\	.	.	.	.	.
.	.	.	.	.	.	8B\	.	.	.	.	.
.	.	.	.	.	.	8c\	.	.	.	.	.
.	.	.	.	.	.	8d\	.	.	.	.	.
2F\	.	.	2F\	.	.	4c\	.	2r	.	2r	.
!	!	!	!	!	!	!LO:TX:t=P:problem:kreska pseudotaktowa	!	!	!	!	!
.	.	.	.	.	.	4A/	.	.	.	.	.
=45-	=45-	=45-	=45-	=45-	=45-	=45-	=45-	=45-	=45-	=45-	=45-
1D	.	.	1D	.	.	4F/	.	1.r	.	4dd\	.
.	.	.	.	.	.	4A/	.	.	.	4dd\	.
.	.	.	.	.	.	8d\	.	.	.	4dd\	.
.	.	.	.	.	.	8c\	.	.	.	.	.
.	.	.	.	.	.	8d\	.	.	.	4dd\	.
.	.	.	.	.	.	8e\	.	.	.	.	.
2G\	.	.	2G\	.	.	4d\	.	.	.	2dd\	.
!	!	!	!	!	!	!LO:TX:t=P:problem:kreska pseudotaktowa	!	!	!	!	!
.	.	.	.	.	.	4B\	.	.	.	.	.
=46-	=46-	=46-	=46-	=46-	=46-	=46-	=46-	=46-	=46-	=46-	=46-
1.E	.	.	1.E	.	.	2G/	.	4gny/	.	4ee\	.
.	.	.	.	.	.	.	.	4g/	.	4ee\	.
.	.	.	.	.	.	2r	.	4g/	.	4ee\	.
.	.	.	.	.	.	.	.	4g/	.	4ee\	.
.	.	.	.	.	.	2r	.	2g/	.	2ee\	.
=47-	=47-	=47-	=47-	=47-	=47-	=47-	=47-	=47-	=47-	=47-	=47-
1.D	#	.	1.D	#	.	1.r	.	4a\	.	4ff#X\	.
.	.	.	.	.	.	.	.	4a\	.	4ff#\	.
.	.	.	.	.	.	.	.	4a\	.	4ff#\	.
.	.	.	.	.	.	.	.	4a\	.	4ff#\	.
.	.	.	.	.	.	.	.	2a\	.	2ff#\	.
=48-	=48-	=48-	=48-	=48-	=48-	=48-	=48-	=48-	=48-	=48-	=48-
1.G	.	.	1.G	.	.	4G/	.	4b\	.	1gg	.
.	.	.	.	.	.	4G/	.	4b\	.	.	.
.	.	.	.	.	.	4G/	.	4b\	.	.	.
.	.	.	.	.	.	4G/	.	4b\	.	.	.
.	.	.	.	.	.	2G/	.	2b\	.	2r	.
=49-	=49-	=49-	=49-	=49-	=49-	=49-	=49-	=49-	=49-	=49-	=49-
1.A	.	.	1.A	.	.	4A/	.	1.cc	.	00.r	.
.	.	.	.	.	.	4A/	.	.	.	.	.
.	.	.	.	.	.	4A/	.	.	.	.	.
.	.	.	.	.	.	4A/	.	.	.	.	.
.	.	.	.	.	.	2A/	.	.	.	.	.
*	*	*	*	*	*	*custos:B	*	*	*	*	*
!	!	!	!	!	!	!LO:LB:g=original	!	!	!	!	!
=50-	=50-	=50-	=50-	=50-	=50-	=50-	=50-	=50-	=50-	=50-	=50-
1.B	.	.	1.B	.	.	4B\	.	1.r	.	.	.
.	.	.	.	.	.	4B\	.	.	.	.	.
.	.	.	.	.	.	4B\	.	.	.	.	.
.	.	.	.	.	.	4B\	.	.	.	.	.
.	.	.	.	.	.	2B\	.	.	.	.	.
*	*	*	*	*	*	*	*	*custos:g	*	*	*
!	!	!	!	!	!	!	!	!LO:LB:g=original	!	!	!
=51-	=51-	=51-	=51-	=51-	=51-	=51-	=51-	=51-	=51-	=51-	=51-
2c\	.	.	2c\	.	.	1c	.	4r	.	.	.
.	.	.	.	.	.	.	.	4g/	.	.	.
2A\	.	.	2A\	.	.	.	.	8cc\	.	.	.
.	.	.	.	.	.	.	.	8b\	.	.	.
.	.	.	.	.	.	.	.	8cc\	.	.	.
.	.	.	.	.	.	.	.	8dd\	.	.	.
!LO:TX:t=P:problem:kreska pseudotaktowa	!	!	!LO:TX:t=P:problem:kreska pseudotaktowa	!	!	!	!	!	!	!	!
2F\	.	.	2F\	.	.	2r	.	4cc\	.	.	.
!	!	!	!	!	!	!	!	!LO:TX:t=P:problem:kreska pseudotaktowa	!	!	!
.	.	.	.	.	.	.	.	4a\	.	.	.
=52-	=52-	=52-	=52-	=52-	=52-	=52-	=52-	=52-	=52-	=52-	=52-
1.D	.	.	1.D	.	.	00.r	.	4f/	.	.	.
.	.	.	.	.	.	.	.	4a\	.	.	.
.	.	.	.	.	.	.	.	8dd\	.	.	.
.	.	.	.	.	.	.	.	8cc\	.	.	.
.	.	.	.	.	.	.	.	8dd\	.	.	.
.	.	.	.	.	.	.	.	8ee\	.	.	.
.	.	.	.	.	.	.	.	4dd\	.	.	.
.	.	.	.	.	.	.	.	4b\	.	.	.
*	*	*	*	*	*	*	*	*	*	*custos:dd	*
!	!	!	!	!	!	!	!	!	!	!LO:LB:g=original	!
=53-	=53-	=53-	=53-	=53-	=53-	=53-	=53-	=53-	=53-	=53-	=53-
2G\	.	.	2G\	.	.	.	.	2g/	.	4r	.
.	.	.	.	.	.	.	.	.	.	4dd\	.
2E\	.	.	2E\	.	.	.	.	2r	.	8gg\	.
.	.	.	.	.	.	.	.	.	.	8ffny\	.
.	.	.	.	.	.	.	.	.	.	8gg\	.
.	.	.	.	.	.	.	.	.	.	8aa\	.
!LO:TX:t=P:problem:kreska pseudotaktowa	!	!	!LO:TX:t=P:problem:kreska pseudotaktowa	!	!	!	!	!	!	!	!
2C/	.	.	2C/	.	.	.	.	2r	.	4gg\	.
!	!	!	!	!	!	!	!	!	!	!LO:TX:t=P:problem:kreska pseudotaktowa	!
.	.	.	.	.	.	.	.	.	.	4ee\	.
=54-	=54-	=54-	=54-	=54-	=54-	=54-	=54-	=54-	=54-	=54-	=54-
1AA	.	.	1AA	.	.	.	.	1.r	.	4cc\	.
.	.	.	.	.	.	.	.	.	.	4ee\	.
.	.	.	.	.	.	.	.	.	.	8aa\	.
.	.	.	.	.	.	.	.	.	.	8gg\	.
.	.	.	.	.	.	.	.	.	.	8aa\	.
.	.	.	.	.	.	.	.	.	.	8bb\	.
2D/	.	.	2D/	.	.	.	.	.	.	4aa\	.
!	!	!	!	!	!	!	!	!	!	!LO:TX:t=P:problem:kreska pseudotaktowa	!
.	.	.	.	.	.	.	.	.	.	4ff\	.
=55-	=55-	=55-	=55-	=55-	=55-	=55-	=55-	=55-	=55-	=55-	=55-
2G\	.	.	2G\	.	.	.	.	4r	.	4dd\	.
.	.	.	.	.	.	.	.	4b\	.	4dd\	.
*col	*	*	*col	*	*	*	*	*	*	*	*
!LO:TX:t=P:problem:kreska pseudotaktowa	!	!	!LO:TX:t=P:problem:kreska pseudotaktowa	!	!	!	!	!	!	!	!
1C	5:6	.	1C	5:6	.	.	.	8cc\	.	8ee\	.
.	.	.	.	.	.	.	.	8b\	.	8dd\	.
.	.	.	.	.	.	.	.	8cc\	.	8ee\	.
.	.	.	.	.	.	.	.	8dd\	.	8ff\	.
.	.	.	.	.	.	.	.	4cc\	.	4ee\	.
.	.	.	.	.	.	.	.	4a\	.	4cc\	.
*Xcol	*	*	*Xcol	*	*	*	*	*	*	*	*
=56-	=56-	=56-	=56-	=56-	=56-	=56-	=56-	=56-	=56-	=56-	=56-
1.D	5:6	.	1.D	5:6	.	4r	.	2f#X/	.	2a/	.
.	.	.	.	.	.	4A/	.	.	.	.	.
.	.	.	.	.	.	8d\	.	2r	.	2r	.
.	.	.	.	.	.	8c\	.	.	.	.	.
.	.	.	.	.	.	8d\	.	.	.	.	.
.	.	.	.	.	.	8e\	.	.	.	.	.
.	.	.	.	.	.	4d\	.	2r	.	2r	.
!	!	!	!	!	!	!LO:TX:t=P:problem:kreska pseudotaktowa	!	!	!	!	!
.	.	.	.	.	.	4B\	.	.	.	.	.
=57-	=57-	=57-	=57-	=57-	=57-	=57-	=57-	=57-	=57-	=57-	=57-
1.E	5:6	.	1.E	5:6	.	4G/	.	00.r	.	00.r	.
.	.	.	.	.	.	4B\	.	.	.	.	.
.	.	.	.	.	.	8c\	.	.	.	.	.
.	.	.	.	.	.	8B\	.	.	.	.	.
.	.	.	.	.	.	8c\	.	.	.	.	.
.	.	.	.	.	.	8d\	.	.	.	.	.
.	.	.	.	.	.	4c\	.	.	.	.	.
!	!	!	!	!	!	!LO:TX:t=P:problem:kreska pseudotaktowa	!	!	!	!	!
.	.	.	.	.	.	4A/	.	.	.	.	.
=58-	=58-	=58-	=58-	=58-	=58-	=58-	=58-	=58-	=58-	=58-	=58-
1.F	5:6	.	1.F	5:6	.	4F/	.	.	.	.	.
.	.	.	.	.	.	4c\	.	.	.	.	.
.	.	.	.	.	.	8g\	.	.	.	.	.
.	.	.	.	.	.	8e\	.	.	.	.	.
.	.	.	.	.	.	8f\	.	.	.	.	.
.	.	.	.	.	.	8g\	.	.	.	.	.
.	.	.	.	.	.	4f\	.	.	.	.	.
!	!	!	!	!	!	!LO:TX:t=P:problem:kreska pseudotaktowa	!	!	!	!	!
.	.	.	.	.	.	4d\	.	.	.	.	.
=59-	=59-	=59-	=59-	=59-	=59-	=59-	=59-	=59-	=59-	=59-	=59-
!LO:TX:t=P:problem:kreska pseudotaktowa	!	!	!LO:TX:t=P:problem:kreska pseudotaktowa	!	!	!	!	!	!	!	!
1.G	5:6	.	1.G	5:6	.	4B\	.	.	.	.	.
.	.	.	.	.	.	4d\	.	.	.	.	.
.	.	.	.	.	.	8e\	.	.	.	.	.
.	.	.	.	.	.	8d\	.	.	.	.	.
.	.	.	.	.	.	8e\	.	.	.	.	.
.	.	.	.	.	.	8f\	.	.	.	.	.
.	.	.	.	.	.	4e\	.	.	.	.	.
!	!	!	!	!	!	!LO:TX:t=P:problem:kreska pseudotaktowa	!	!	!	!	!
.	.	.	.	.	.	4c\	.	.	.	.	.
=60-	=60-	=60-	=60-	=60-	=60-	=60-	=60-	=60-	=60-	=60-	=60-
2A\	.	.	2A\	.	.	4A/	.	.	.	.	.
.	.	.	.	.	.	4A/	.	.	.	.	.
*	*	*	*	*	*	*custos:B	*	*	*	*	*
!	!	!	!	!	!	!LO:LB:g=original	!	!	!	!	!
2B#X\	.	.	2B#X\	.	.	8B\	.	.	.	.	.
.	.	.	.	.	.	8A/	.	.	.	.	.
.	.	.	.	.	.	8B\	.	.	.	.	.
.	.	.	.	.	.	8c\	.	.	.	.	.
2G\	.	.	2G\	.	.	4B\	.	.	.	.	.
!	!	!	!	!	!	!LO:TX:t=P:problem:kreska pseudotaktowa	!	!	!	!	!
.	.	.	.	.	.	4G/	.	.	.	.	.
*custos:E	*	*	*custos:E	*	*	*	*	*	*	*	*
!LO:LB:g=original	!	!	!LO:LB:g=original	!	!	!	!	!	!	!	!
=61-	=61-	=61-	=61-	=61-	=61-	=61-	=61-	=61-	=61-	=61-	=61-
1.E	.	.	1.E	.	.	4E/	.	1.r	.	4r	.
.	.	.	.	.	.	4E/	.	.	.	4b/	.
.	.	.	.	.	.	4E/	.	.	.	8ee\	.
.	.	.	.	.	.	.	.	.	.	8dd\	.
.	.	.	.	.	.	4E/	.	.	.	8ee\	.
.	.	.	.	.	.	.	.	.	.	8ff\	.
.	.	.	.	.	.	2E/	.	.	.	4ee\	.
.	.	.	.	.	.	.	.	.	.	4cc\	.
=62-	=62-	=62-	=62-	=62-	=62-	=62-	=62-	=62-	=62-	=62-	=62-
1.F	.	.	1.F	.	.	4F/	.	4a\	.	4a/	.
.	.	.	.	.	.	4F/	.	4a\	.	4cc\	.
.	.	.	.	.	.	4F/	.	4a\	.	8ff\	.
.	.	.	.	.	.	.	.	.	.	8ee\	.
.	.	.	.	.	.	4F/	.	4a\	.	8ff\	.
.	.	.	.	.	.	.	.	.	.	8gg\	.
.	.	.	.	.	.	2F/	.	2a\	.	4ff\	.
.	.	.	.	.	.	.	.	.	.	4dd\	.
*	*	*	*	*	*	*	*	*custos:b	*	*custos:b	*
!	!	!	!	!	!	!	!	!LO:LB:g=original	!	!LO:LB:g=original	!
=63-	=63-	=63-	=63-	=63-	=63-	=63-	=63-	=63-	=63-	=63-	=63-
1G	.	.	1G	.	.	4G/	.	4b\	.	4b/	.
.	.	.	.	.	.	4G/	.	4b\	.	4dd\	.
.	.	.	.	.	.	4G/	.	4b\	.	8gg\	.
.	.	.	.	.	.	.	.	.	.	8ff\	.
.	.	.	.	.	.	4G/	.	4b\	.	8gg\	.
.	.	.	.	.	.	.	.	.	.	8aa\	.
!	!	!	!	!	!	!LO:TX:t=P:problem:kreska pseudotaktowa	!	!	!	!	!
2E\	.	.	2E\	.	.	2G/	.	2b\	.	4gg\	.
!	!	!	!	!	!	!	!	!	!	!LO:TX:t=P:problem:kreska pseudotaktowa	!
.	.	.	.	.	.	.	.	.	.	4ee\	.
=64-	=64-	=64-	=64-	=64-	=64-	=64-	=64-	=64-	=64-	=64-	=64-
1.AA	.	.	1.AA	.	.	4A/	.	4cc\	.	2cc\	.
.	.	.	.	.	.	4E/	.	4cc\	.	.	.
.	.	.	.	.	.	8A/	.	4cc\	.	2r	.
.	.	.	.	.	.	8G/	.	.	.	.	.
.	.	.	.	.	.	8A/	.	4cc\	.	.	.
.	.	.	.	.	.	8B\	.	.	.	.	.
.	.	.	.	.	.	4A/	.	2cc\	.	2r	.
!	!	!	!	!	!	!LO:TX:t=P:problem:kreska pseudotaktowa	!	!	!	!	!
.	.	.	.	.	.	4F/	.	.	.	.	.
=65-	=65-	=65-	=65-	=65-	=65-	=65-	=65-	=65-	=65-	=65-	=65-
1.D	.	.	1.D	.	.	4D/	.	1dd	.	1.r	.
.	.	.	.	.	.	4A/	.	.	.	.	.
.	.	.	.	.	.	8d\	.	.	.	.	.
.	.	.	.	.	.	8c\	.	.	.	.	.
.	.	.	.	.	.	8d\	.	.	.	.	.
.	.	.	.	.	.	8e\	.	.	.	.	.
!	!	!	!	!	!	!	!	!LO:TX:t=P:problem:kreska pseudotaktowa	!	!	!
.	.	.	.	.	.	4d\	.	2r	.	.	.
.	.	.	.	.	.	4B\	.	.	.	.	.
=66-	=66-	=66-	=66-	=66-	=66-	=66-	=66-	=66-	=66-	=66-	=66-
1.G	.	.	1.G	.	.	2G/	.	4r	.	4dd\	.
.	.	.	.	.	.	.	.	4d/	.	4dd\	.
.	.	.	.	.	.	2r	.	8g/	.	4dd\	.
.	.	.	.	.	.	.	.	8fny/	.	.	.
.	.	.	.	.	.	.	.	8g/	.	4dd\	.
.	.	.	.	.	.	.	.	8a\	.	.	.
.	.	.	.	.	.	2r	.	4g/	.	2dd\	.
!	!	!	!	!	!	!	!	!LO:TX:t=P:problem:kreska pseudotaktowa	!	!	!
.	.	.	.	.	.	.	.	4e/	.	.	.
=67-	=67-	=67-	=67-	=67-	=67-	=67-	=67-	=67-	=67-	=67-	=67-
1E	.	.	1E	.	.	1.r	.	4c/	.	4ee\	.
.	.	.	.	.	.	.	.	4g/	.	4ee\	.
.	.	.	.	.	.	.	.	8cc\	.	4ee\	.
.	.	.	.	.	.	.	.	8b\	.	.	.
.	.	.	.	.	.	.	.	8cc\	.	4ee\	.
.	.	.	.	.	.	.	.	8dd\	.	.	.
!LO:TX:t=P:problem:kreska pseudotaktowa	!	!	!LO:TX:t=P:problem:kreska pseudotaktowa	!	!	!	!	!	!	!	!
2A\	-	.	2A\	-	.	.	.	4cc\	.	2ee\	.
!	!	!	!	!	!	!	!	!LO:TX:t=P:problem:kreska pseudotaktowa	!	!	!
.	.	.	.	.	.	.	.	4a\	.	.	.
*	*	*	*	*	*	*custos:D	*	*	*	*	*
!	!	!	!	!	!	!LO:LB:g=original	!	!	!	!	!
=68-	=68-	=68-	=68-	=68-	=68-	=68-	=68-	=68-	=68-	=68-	=68-
1.D	#	.	1.D	#	.	4D/	.	4f#X/	.	4ff#X\	.
.	.	.	.	.	.	4D/	.	4a\	.	4ff#\	.
.	.	.	.	.	.	4D/	.	8dd\	.	4ff#\	.
.	.	.	.	.	.	.	.	8cc\	.	.	.
.	.	.	.	.	.	4D/	.	8dd\	.	4ff#\	.
.	.	.	.	.	.	.	.	8ee\	.	.	.
.	.	.	.	.	.	2D/	.	4dd\	.	2ff#\	.
.	.	.	.	.	.	.	.	4b\	.	.	.
*	*	*	*	*	*	*	*	*custos:g	*	*	*
!	!	!	!	!	!	!	!	!LO:LB:g=original	!	!	!
=69-	=69-	=69-	=69-	=69-	=69-	=69-	=69-	=69-	=69-	=69-	=69-
1.E	.	.	1.E	.	.	4E/	.	4g/	.	4gg\	.
.	.	.	.	.	.	4E/	.	4g/	.	4b/	.
.	.	.	.	.	.	4E/	.	4g/	.	8ee\	.
.	.	.	.	.	.	.	.	.	.	8dd\	.
.	.	.	.	.	.	4E/	.	4g/	.	8ee\	.
.	.	.	.	.	.	.	.	.	.	8ffny\	.
.	.	.	.	.	.	2E/	.	2g/	.	4ee\	.
!	!	!	!	!	!	!	!	!	!	!LO:TX:t=P:problem:kreska pseudotaktowa	!
.	.	.	.	.	.	.	.	.	.	4cc\	.
=70-	=70-	=70-	=70-	=70-	=70-	=70-	=70-	=70-	=70-	=70-	=70-
1.F#X	.	.	1.F#X	.	.	4F#X/	.	4a\	.	4a/	.
.	.	.	.	.	.	4F#/	.	4a\	.	4a/	.
.	.	.	.	.	.	4F#/	.	4a\	.	8dd\	.
.	.	.	.	.	.	.	.	.	.	8cc\	.
.	.	.	.	.	.	4F#/	.	4a\	.	8dd\	.
.	.	.	.	.	.	.	.	.	.	8ee\	.
!	!	!	!	!	!	!LO:TX:t=P:problem:kreska pseudotaktowa	!	!	!	!	!
.	.	.	.	.	.	2F#/	.	2a\	.	4dd\	.
.	.	.	.	.	.	.	.	.	.	4b/	.
*	*	*	*	*	*	*	*	*	*	*custos:g	*
!	!	!	!	!	!	!	!	!	!	!LO:LB:g=original	!
=71-	=71-	=71-	=71-	=71-	=71-	=71-	=71-	=71-	=71-	=71-	=71-
1.G	.	.	1.G	.	.	4G/	.	4b\	.	4g/	.
.	.	.	.	.	.	4B\	.	4b\	.	4dd\	.
.	.	.	.	.	.	8e\	.	4b\	.	8gg\	.
.	.	.	.	.	.	8d\	.	.	.	8ff\	.
.	.	.	.	.	.	8e\	.	4b\	.	8gg\	.
.	.	.	.	.	.	8f\	.	.	.	8aa\	.
.	.	.	.	.	.	4e\	.	2b\	.	4gg\	.
!	!	!	!	!	!	!LO:TX:t=P:problem:kreska pseudotaktowa	!	!	!	!LO:TX:t=P:problem:kreska pseudotaktowa	!
.	.	.	.	.	.	4G/	.	.	.	4ee\	.
=72-	=72-	=72-	=72-	=72-	=72-	=72-	=72-	=72-	=72-	=72-	=72-
4A\	.	.	4A\	.	.	4A/	.	1cc	.	4cc\	.
4Fny\	.	.	4Fny\	.	.	4Fny/	.	.	.	4a/	.
2A\	.	.	2A\	.	.	8A/	.	.	.	8cc\	.
.	.	.	.	.	.	8G/	.	.	.	8b/	.
.	.	.	.	.	.	8A/	.	.	.	8cc\	.
.	.	.	.	.	.	8B\	.	.	.	8dd\	.
2F\	.	.	2F\	.	.	4A/	.	2r	.	4cc\	.
!	!	!	!	!	!	!LO:TX:t=P:problem:kreska pseudotaktowa	!	!	!	!	!
.	.	.	.	.	.	4F/	.	.	.	4a/	.
=73-	=73-	=73-	=73-	=73-	=73-	=73-	=73-	=73-	=73-	=73-	=73-
!LO:TX:t=P:problem:kreska pseudotaktowa	!	!	!LO:TX:t=P:problem:kreska pseudotaktowa	!	!	!	!	!	!	!	!
1.D	5:6	.	1.D	5:6	.	4D/	.	1.r	.	2f/	.
.	.	.	.	.	.	4A/	.	.	.	.	.
.	.	.	.	.	.	8d\	.	.	.	2r	.
.	.	.	.	.	.	8c\	.	.	.	.	.
.	.	.	.	.	.	8d\	.	.	.	.	.
.	.	.	.	.	.	8e\	.	.	.	.	.
.	.	.	.	.	.	4d\	.	.	.	2r	.
!	!	!	!	!	!	!LO:TX:t=P:problem:kreska pseudotaktowa	!	!	!	!	!
.	.	.	.	.	.	4B\	.	.	.	.	.
=74-	=74-	=74-	=74-	=74-	=74-	=74-	=74-	=74-	=74-	=74-	=74-
1.E	6	.	1.E	6	.	2G/	.	4r	.	4g/	.
.	.	.	.	.	.	.	.	4g/	.	4g/	.
.	.	.	.	.	.	2r	.	8cc\	.	4g/	.
.	.	.	.	.	.	.	.	8b\	.	.	.
.	.	.	.	.	.	.	.	8cc\	.	4g/	.
.	.	.	.	.	.	.	.	8dd\	.	.	.
.	.	.	.	.	.	2r	.	4cc\	.	2g/	.
.	.	.	.	.	.	.	.	4a\	.	.	.
=75-	=75-	=75-	=75-	=75-	=75-	=75-	=75-	=75-	=75-	=75-	=75-
1.F	6	.	1.F	6	.	1.r	.	4fny/	.	4a/	.
.	.	.	.	.	.	.	.	4a\	.	4a/	.
.	.	.	.	.	.	.	.	8dd\	.	4a/	.
.	.	.	.	.	.	.	.	8cc\	.	.	.
.	.	.	.	.	.	.	.	8dd\	.	4a/	.
.	.	.	.	.	.	.	.	8ee\	.	.	.
!	!	!	!	!	!	!	!	!LO:TX:b:t=Aaaa	!	!	!
.	.	.	.	.	.	.	.	4dd\	.	2a/	.
!	!	!	!	!	!	!	!	!LO:TX:t=P:problem:kreska pseudotaktowa	!	!	!
.	.	.	.	.	.	.	.	4b\	.	.	.
*	*	*	*	*	*	*custos:G	*	*	*	*	*
!	!	!	!	!	!	!LO:PB:g=original	!	!	!	!	!
=76-	=76-	=76-	=76-	=76-	=76-	=76-	=76-	=76-	=76-	=76-	=76-
1.G	5:6	.	1.G	5:6	.	4G/	.	4g/	.	4b/	.
.	.	.	.	.	.	4G/	.	4d/	.	4b/	.
.	.	.	.	.	.	4G/	.	8g/	.	4b/	.
.	.	.	.	.	.	.	.	8f/	.	.	.
.	.	.	.	.	.	4G/	.	8g/	.	4b/	.
.	.	.	.	.	.	.	.	8a\	.	.	.
.	.	.	.	.	.	2G/	.	4g/	.	2b/	.
.	.	.	.	.	.	.	.	4e/	.	.	.
=77-	=77-	=77-	=77-	=77-	=77-	=77-	=77-	=77-	=77-	=77-	=77-
1.A	5:6	.	1.A	5:6	.	4A/	.	2c/	.	4cc\	.
.	.	.	.	.	.	4A/	.	.	.	4ee\	.
.	.	.	.	.	.	4A/	.	2r	.	8aa\	.
.	.	.	.	.	.	.	.	.	.	8gg\	.
.	.	.	.	.	.	4A/	.	.	.	8aa\	.
.	.	.	.	.	.	.	.	.	.	8bb\	.
.	.	.	.	.	.	2A/	.	2r	.	4aa\	.
.	.	.	.	.	.	.	.	.	.	4ff\	.
*	*	*	*	*	*	*	*	*	*	*custos:dd	*
!	!	!	!	!	!	!	!	!	!	!LO:LB:g=original	!
=78-	=78-	=78-	=78-	=78-	=78-	=78-	=78-	=78-	=78-	=78-	=78-
1.Bny	6	.	1.Bny	6	.	4B\	.	0.r	.	4dd\	.
.	.	.	.	.	.	4B\	.	.	.	4dd\	.
.	.	.	.	.	.	4B\	.	.	.	8gg\	.
.	.	.	.	.	.	.	.	.	.	8ff\	.
.	.	.	.	.	.	4B\	.	.	.	8gg\	.
.	.	.	.	.	.	.	.	.	.	8aa\	.
!	!	!	!	!	!	!LO:TX:t=P:problem:kreska pseudotaktowa	!	!	!	!	!
.	.	.	.	.	.	2B\	.	.	.	4gg\	.
.	.	.	.	.	.	.	.	.	.	4dd\	.
=79-	=79-	=79-	=79-	=79-	=79-	=79-	=79-	=79-	=79-	=79-	=79-
1c	.	.	1c	.	.	4c\	.	.	.	4cc\	.
.	.	.	.	.	.	4e\	.	.	.	4cc\	.
.	.	.	.	.	.	8c\	.	.	.	8ee\	.
.	.	.	.	.	.	8B\	.	.	.	8dd\	.
.	.	.	.	.	.	8c\	.	.	.	8ee\	.
.	.	.	.	.	.	8d\	.	.	.	8ff\	.
2A\	.	.	2A\	.	.	4c\	.	.	.	4ee\	.
!	!	!	!	!	!	!LO:TX:t=P:problem:kreska pseudotaktowa	!	!	!	!	!
.	.	.	.	.	.	4A/	.	.	.	4cc\	.
*	*	*	*	*	*	*	*	*custos:a	*	*	*
!	!	!	!	!	!	!	!	!LO:PB:g=original	!	!	!
=80-	=80-	=80-	=80-	=80-	=80-	=80-	=80-	=80-	=80-	=80-	=80-
1.F	.	.	1.F	.	.	4F/	.	4r	.	2a/	.
.	.	.	.	.	.	4F/	.	4a\	.	.	.
.	.	.	.	.	.	8A/	.	8cc\	.	2r	.
.	.	.	.	.	.	8G/	.	8b\	.	.	.
.	.	.	.	.	.	8A/	.	8cc\	.	.	.
.	.	.	.	.	.	8B\	.	8dd\	.	.	.
.	.	.	.	.	.	4A/	.	4cc\	.	2r	.
!	!	!	!	!	!	!LO:TX:t=P:problem:kreska pseudotaktowa	!	!LO:TX:t=P:problem:kreska pseudotaktowa	!	!	!
.	.	.	.	.	.	4F/	.	4a\	.	.	.
=81-	=81-	=81-	=81-	=81-	=81-	=81-	=81-	=81-	=81-	=81-	=81-
1.D	.	.	1.D	.	.	4D/	.	2f/	.	1.r	.
.	.	.	.	.	.	4A/	.	.	.	.	.
.	.	.	.	.	.	8d\	.	2r	.	.	.
.	.	.	.	.	.	8c\	.	.	.	.	.
.	.	.	.	.	.	8d\	.	.	.	.	.
.	.	.	.	.	.	8e\	.	.	.	.	.
.	.	.	.	.	.	4d\	.	2r	.	.	.
!	!	!	!	!	!	!LO:TX:t=P:problem:kreska pseudotaktowa	!	!	!	!	!
.	.	.	.	.	.	4B\	.	.	.	.	.
*	*	*	*	*	*	*custos:G	*	*	*	*	*
!	!	!	!	!	!	!LO:LB:g=original	!	!	!	!	!
=82-	=82-	=82-	=82-	=82-	=82-	=82-	=82-	=82-	=82-	=82-	=82-
2G\	.	.	2G\	.	.	4G/	.	4g/	.	4r	.
.	.	.	.	.	.	4G/	.	4g/	.	4b/	.
2c\	.	.	2c\	.	.	8c\	.	4g/	.	8ee\	.
.	.	.	.	.	.	8B\	.	.	.	8dd\	.
.	.	.	.	.	.	8c\	.	4g/	.	8ee\	.
.	.	.	.	.	.	8d\	.	.	.	8ff\	.
2C/	.	.	2C/	.	.	4c\	.	2g/	.	4ee\	.
!	!	!	!	!	!	!	!	!	!	!LO:TX:t=P:problem:kreska pseudotaktowa	!
.	.	.	.	.	.	4A/	.	.	.	4cc\	.
=83-	=83-	=83-	=83-	=83-	=83-	=83-	=83-	=83-	=83-	=83-	=83-
1.F	5:6	.	1.F	5:6	.	4F/	.	4a\	.	4a/	.
.	.	.	.	.	.	4F/	.	4a\	.	4a/	.
.	.	.	.	.	.	8f\	.	4a\	.	8aa\	.
.	.	.	.	.	.	8e\	.	.	.	8gg\	.
.	.	.	.	.	.	8f\	.	4a\	.	8aa\	.
.	.	.	.	.	.	8g\	.	.	.	8bb\	.
.	.	.	.	.	.	4f\	.	2a\	.	4aa\	.
!	!	!	!	!	!	!LO:TX:t=P:problem:kreska pseudotaktowa	!	!	!	!LO:TX:t=P:problem:kreska pseudotaktowa	!
.	.	.	.	.	.	4d\	.	.	.	4ff\	.
=84-	=84-	=84-	=84-	=84-	=84-	=84-	=84-	=84-	=84-	=84-	=84-
1.G	.	.	1.G	.	.	4B\	.	4b\	.	4dd\	.
*	*	*	*	*	*	*clefF4	*	*	*	*	*
.	.	.	.	.	.	4GG/	.	4b\	.	4b/	.
.	.	.	.	.	.	8G\	.	4b\	.	8bb\	.
.	.	.	.	.	.	8F\	.	.	.	8aa\	.
.	.	.	.	.	.	8G\	.	4b\	.	8bb\	.
.	.	.	.	.	.	8A\	.	.	.	8ccc\	.
!	!	!	!	!	!	!	!	!LO:TX:t=P:problem:kreska pseudotaktowa	!	!	!
.	.	.	.	.	.	4G\	.	2b\	.	4bb\	.
!	!	!	!	!	!	!LO:TX:t=P:problem:kreska pseudotaktowa	!	!	!	!	!
.	.	.	.	.	.	4E\	.	.	.	4gg\	.
*custos:C	*	*	*custos:C	*	*	*	*	*	*	*custos:ee	*
!LO:LB:g=original	!	!	!LO:LB:g=original	!	!	!	!	!	!	!LO:PB:g=original	!
=85-	=85-	=85-	=85-	=85-	=85-	=85-	=85-	=85-	=85-	=85-	=85-
!LO:TX:t=P:problem:kreska pseudotaktowa	!	!	!LO:TX:t=P:problem:kreska pseudotaktowa	!	!	!	!	!	!	!	!
1.C	5:6	.	1.C	5:6	.	4C/	.	4cc\	.	4ee\	.
.	.	.	.	.	.	4C/	.	4ee\	.	4cc\	.
.	.	.	.	.	.	4C/	.	8cc\	.	8ee\	.
.	.	.	.	.	.	.	.	8b\	.	8dd\	.
.	.	.	.	.	.	4C/	.	8cc\	.	8ee\	.
.	.	.	.	.	.	.	.	8dd\	.	8ff\	.
.	.	.	.	.	.	2C/	.	4cc\	.	4ee\	.
!	!	!	!	!	!	!	!	!LO:TX:t=P:problem:kreska pseudotaktowa	!	!LO:TX:t=P:problem:kreska pseudotaktowa	!
.	.	.	.	.	.	.	.	4a\	.	4cc\	.
=86-	=86-	=86-	=86-	=86-	=86-	=86-	=86-	=86-	=86-	=86-	=86-
1.D	5:6	.	1.D	5:6	.	4D/	.	4f/	.	4a/	.
.	.	.	.	.	.	4D/	.	4f/	.	4dd\	.
.	.	.	.	.	.	4D/	.	8dd\	.	8ff\	.
.	.	.	.	.	.	.	.	8cc\	.	8ee\	.
.	.	.	.	.	.	4D/	.	8dd\	.	8ff\	.
.	.	.	.	.	.	.	.	8ee\	.	8gg\	.
.	.	.	.	.	.	2D/	.	4dd\	.	4ff\	.
!	!	!	!	!	!	!	!	!	!	!LO:TX:t=P:problem:kreska pseudotaktowa	!
.	.	.	.	.	.	.	.	4b\	.	4dd\	.
*	*	*	*	*	*	*	*	*custos:g	*	*	*
!	!	!	!	!	!	!	!	!LO:LB:g=original	!	!	!
=87-	=87-	=87-	=87-	=87-	=87-	=87-	=87-	=87-	=87-	=87-	=87-
1.E	5:6	.	1.E	5:6	.	4E\	.	4g/	.	4b/	.
.	.	.	.	.	.	4E\	.	4g/	.	4ee\	.
.	.	.	.	.	.	4E\	.	8ee\	.	8gg\	.
.	.	.	.	.	.	.	.	8dd\	.	8ff\	.
.	.	.	.	.	.	4E\	.	8ee\	.	8gg\	.
.	.	.	.	.	.	.	.	8ff\	.	8aa\	.
.	.	.	.	.	.	2E\	.	4ee\	.	4gg\	.
!	!	!	!	!	!	!	!	!LO:TX:t=P:problem:kreska pseudotaktowa	!	!LO:TX:t=P:problem:kreska pseudotaktowa	!
.	.	.	.	.	.	.	.	4cc\	.	4ee\	.
*	*	*	*	*	*	*custos:F	*	*	*	*	*
!	!	!	!	!	!	!LO:LB:g=original	!	!	!	!	!
=88-	=88-	=88-	=88-	=88-	=88-	=88-	=88-	=88-	=88-	=88-	=88-
1.F	.	.	1.F	.	.	4F\	.	4a\	.	4cc\	.
.	.	.	.	.	.	4F\	.	4a\	.	4cc\	.
.	.	.	.	.	.	8A\	.	4a\	.	4cc\	.
.	.	.	.	.	.	8G\	.	.	.	.	.
.	.	.	.	.	.	8A\	.	4a\	.	4cc\	.
.	.	.	.	.	.	8B\	.	.	.	.	.
.	.	.	.	.	.	4A\	.	2a\	.	2cc\	.
!	!	!	!	!	!	!LO:TX:t=P:problem:kreska pseudotaktowa	!	!	!	!	!
.	.	.	.	.	.	4F\	.	.	.	.	.
=89-	=89-	=89-	=89-	=89-	=89-	=89-	=89-	=89-	=89-	=89-	=89-
!LO:TX:t=P:problem:kreska pseudotaktowa	!	!	!LO:TX:t=P:problem:kreska pseudotaktowa	!	!	!	!	!	!	!	!
1.D	6	.	1.D	6	.	4D/	.	4b\	.	4dd\	.
.	.	.	.	.	.	4D/	.	4b\	.	4dd\	.
.	.	.	.	.	.	4D/	.	8dd\	.	8ff\	.
.	.	.	.	.	.	.	.	8cc\	.	8ee\	.
.	.	.	.	.	.	4D/	.	8dd\	.	8ff\	.
.	.	.	.	.	.	.	.	8ee\	.	8gg\	.
.	.	.	.	.	.	2D/	.	4dd\	.	4ff\	.
.	.	.	.	.	.	.	.	4b\	.	4dd\	.
*	*	*	*	*	*	*	*	*	*	*custos:b	*
!	!	!	!	!	!	!	!	!	!	!LO:LB:g=original	!
=90-	=90-	=90-	=90-	=90-	=90-	=90-	=90-	=90-	=90-	=90-	=90-
!	!	!LO:DY:t=piano	!	!	!LO:DY:t=piano	!	!LO:DY:b:t=piano,	!	!LO:DY:b:t=piano	!	!LO:DY:b:t=piano
1E	#	p	1E	#	p	1E	p	1g#X	p	1b	p
2C/	.	.	2C/	.	.	2C/	.	2cc\	.	2ee\	.
=91-	=91-	=91-	=91-	=91-	=91-	=91-	=91-	=91-	=91-	=91-	=91-
!	!	!	!	!	!	!	!	!	!LO:DY:b:t=più piano	!	!
1E	#	.	1E	#	.	1E	.	1g#X	p	1b	.
!LO:TX:t=P:problem:kreska pseudotaktowa	!	!	!LO:TX:t=P:problem:kreska pseudotaktowa	!	!	!LO:TX:t=P:problem:kreska pseudotaktowa	!	!	!	!LO:TX:t=P:problem:kreska pseudotaktowa	!
2r	.	.	2r	.	.	2r	.	2r	.	2r	.
=92-	=92-	=92-	=92-	=92-	=92-	=92-	=92-	=92-	=92-	=92-	=92-
2r	.	.	2r	.	.	2r	.	2r	.	2r	.
2r	.	.	2r	.	.	2r	.	2r	.	2r	.
2C/	.	.	2C/	.	.	2C/	.	2cc\	.	2ee\	.
=93-	=93-	=93-	=93-	=93-	=93-	=93-	=93-	=93-	=93-	=93-	=93-
!	!	!LO:DY:b:t=più piano	!	!	!LO:DY:b:t=più piano	!	!LO:DY:b:t=più piano.	!	!	!	!LO:DY:b:t=più piano
1E	#	p	1E	#	p	1E	p	1g#X	.	1b	p
!LO:TX:t=P:problem:kreska pseudotaktowa	!	!	!LO:TX:t=P:problem:kreska pseudotaktowa	!	!	!LO:TX:t=P:problem:kreska pseudotaktowa	!	!LO:TX:t=P:problem:kreska pseudotaktowa	!	!LO:TX:t=P:problem:kreska pseudotaktowa	!
2r	.	.	2r	.	.	2r	.	2r	.	2r	.
=94-	=94-	=94-	=94-	=94-	=94-	=94-	=94-	=94-	=94-	=94-	=94-
2r	.	.	2r	.	.	2r	.	2r	.	2r	.
2r	.	.	2r	.	.	2r	.	2r	.	2r	.
2C/	.	.	2C/	.	.	2C/	.	2cc\	.	2ee\	.
=95-	=95-	=95-	=95-	=95-	=95-	=95-	=95-	=95-	=95-	=95-	=95-
1D	.	.	1D	.	.	1D	.	1.a	.	1ff	.
2F\	.	.	2F\	.	.	2F\	.	.	.	2a/	.
=96-	=96-	=96-	=96-	=96-	=96-	=96-	=96-	=96-	=96-	=96-	=96-
1.E	4#r	.	1.E	4#r	.	1.E	.	1a	.	1.b	.
.	.	.	.	.	.	.	.	2g#X/	.	.	.
=97-	=97-	=97-	=97-	=97-	=97-	=97-	=97-	=97-	=97-	=97-	=97-
1.AA	.	.	1.AA	.	.	1.AA	.	1.a	.	1.a	.
*	*	*	*	*	*	*clefC4	*	*custos:a	*	*	*
!	!	!	!	!	!	!	!	!LO:LB:g=original	!	!	!
=:|!-	=:|!-	=:|!-	=:|!-	=:|!-	=:|!-	=:|!-	=:|!-	=:|!-	=:|!-	=:|!-	=:|!-
*M2/2	*	*	*M2/2	*	*	*M2/2	*	*M2/2	*	*M2/2	*
*met(C|)	*	*	*met(C|)	*	*	*met(C|)	*	*met(C|)	*	*met(C|)	*
4A\	.	.	4A\	.	.	1r	.	2r	.	16r	.
.	.	.	.	.	.	.	.	.	.	16ee\	.
.	.	.	.	.	.	.	.	.	.	16ff\	.
.	.	.	.	.	.	.	.	.	.	16ee\	.
4C#X/	.	.	4C#X/	.	.	.	.	.	.	[<8gg\	.
.	.	.	.	.	.	.	.	.	.	32gg\]	.
.	.	.	.	.	.	.	.	.	.	32ee\	.
.	.	.	.	.	.	.	.	.	.	32ff\	.
.	.	.	.	.	.	.	.	.	.	32ee\	.
4D/	.	.	4D/	.	.	.	.	16r	.	4dd\	.
.	.	.	.	.	.	.	.	16a\	.	.	.
.	.	.	.	.	.	.	.	16b\	.	.	.
.	.	.	.	.	.	.	.	16a\	.	.	.
4FF#X/	.	.	4FF#X/	.	.	.	.	[8dd\	.	4r	.
.	.	.	.	.	.	.	.	32dd\]	.	.	.
.	.	.	.	.	.	.	.	32a\	.	.	.
.	.	.	.	.	.	.	.	32b\	.	.	.
!	!	!	!	!	!	!	!	!LO:TX:t=P:problem:kreska pseudotaktowa	!	!	!
.	.	.	.	.	.	.	.	32a\	.	.	.
=98-	=98-	=98-	=98-	=98-	=98-	=98-	=98-	=98-	=98-	=98-	=98-
4GG/	.	.	4GG/	.	.	16r	.	4gny/	.	1r	.
.	.	.	.	.	.	16d\	.	.	.	.	.
.	.	.	.	.	.	16e\	.	.	.	.	.
.	.	.	.	.	.	16d\	.	.	.	.	.
4BB/	.	.	4BB/	.	.	[<8g\	.	4r	.	.	.
.	.	.	.	.	.	32g\]	.	.	.	.	.
.	.	.	.	.	.	32d\	.	.	.	.	.
.	.	.	.	.	.	32e\	.	.	.	.	.
.	.	.	.	.	.	32d\	.	.	.	.	.
*	*	*	*	*	*	*custos:c	*	*	*	*	*
!	!	!	!	!	!	!LO:LB:g=original	!	!	!	!	!
2Cny/	5:6	.	2Cny/	5:6	.	16c\	.	16r	.	.	.
.	.	.	.	.	.	16e\	.	16g/	.	.	.
.	.	.	.	.	.	16g\	.	16a\	.	.	.
.	.	.	.	.	.	16c\	.	16g/	.	.	.
.	.	.	.	.	.	[<8a\	.	[8cc\	.	.	.
.	.	.	.	.	.	32a\]	.	32cc\]	.	.	.
.	.	.	.	.	.	32e\	.	32g/	.	.	.
.	.	.	.	.	.	32f\	.	32a\	.	.	.
!	!	!	!	!	!	!	!	!LO:TX:t=P:problem:kreska pseudotaktowa	!	!	!
.	.	.	.	.	.	32e\	.	32g/	.	.	.
*custos:D	*	*	*custos:D	*	*	*	*	*	*	*	*
!LO:LB:g=original	!	!	!LO:LB:g=original	!	!	!	!	!	!	!	!
=99-	=99-	=99-	=99-	=99-	=99-	=99-	=99-	=99-	=99-	=99-	=99-
4D/	.	.	4D/	.	.	8d\	.	16f/	.	16r	.
.	.	.	.	.	.	.	.	16f/	.	16a/	.
.	.	.	.	.	.	8D/	.	16g/	.	16b/	.
.	.	.	.	.	.	.	.	16f/	.	16a/	.
!	!	!	!	!	!	!	!	!LO:N:vis=4	!	!	!
4C#X/	.	.	4C#X/	.	.	4C#X/	.	8e/	.	[<8gg\	.
!	!	!	!	!	!	!	!	!LO:N:vis=4	!	!	!
.	.	.	.	.	.	.	.	8e/	.	32gg\]	.
.	.	.	.	.	.	.	.	.	.	32ee\	.
.	.	.	.	.	.	.	.	.	.	32ff\	.
.	.	.	.	.	.	.	.	.	.	32ee\	.
2D/	.	.	2D/	.	.	2D/	.	2f/	.	2dd\	.
=100-	=100-	=100-	=100-	=100-	=100-	=100-	=100-	=100-	=100-	=100-	=100-
!LO:N:vis=0	!	!	!LO:N:vis=0	!	!	!LO:N:vis=0	!	!LO:N:vis=0	!	!LO:N:vis=0	!
0.AA;	.	.	0.AA;	.	.	0.AA;	.	0.e;	.	0.cc#X;	.
==	==	==	==	==	==	==	==	==	==	==	==
*-	*-	*-	*-	*-	*-	*-	*-	*-	*-	*-	*-
!!!system-decoration: [(s1,s2,s3)]s4,s5
!!!RDF**kern: > = above
!!!RDF**kern: < = below
!!!ENC: Filip Voros
!!!END: 2022-11-09
!!!ENC: Natalia Wrzos
!!!END: 2022-12-01
